src/assets/outline/MessageCircle.svg

<svg width="24" height="24" viewBox="0 0 24 24"  xmlns="http://www.w3.org/2000/svg">
<path d="M12 18.31C11.53 18.31 11.08 18.07 10.77 17.66L10.05 16.7H9.89999C7.87999 16.7 6 16.23 6 12.8V10.17C6 7.86004 7.19 6.49002 9.34 6.30002C9.5 6.28002 9.68999 6.27002 9.89999 6.27002H14.1C16.61 6.27002 18 7.65004 18 10.17V12.8C18 13 17.99 13.2 17.97 13.38C17.79 15.5 16.42 16.69 14.11 16.69H13.96L13.24 17.65C12.92 18.08 12.47 18.31 12 18.31ZM9.89999 7.79004C9.75999 7.79004 9.63 7.79003 9.5 7.81003C8.09 7.93003 7.5 8.64003 7.5 10.19V12.82C7.5 14.89 8.06999 15.22 9.89999 15.22H10.16C10.54 15.22 10.95 15.42 11.18 15.72L11.97 16.78L12.82 15.73C13.06 15.41 13.44 15.22 13.84 15.22H14.1C15.65 15.22 16.35 14.63 16.47 13.25C16.49 13.09 16.49 12.96 16.49 12.82V10.19C16.49 8.51003 15.77 7.79004 14.09 7.79004H9.89999Z" />
<path d="M12 22.75C6.07 22.75 1.25 17.93 1.25 12C1.25 6.07 6.07 1.25 12 1.25C17.93 1.25 22.75 6.07 22.75 12C22.75 17.93 17.93 22.75 12 22.75ZM12 2.75C6.9 2.75 2.75 6.9 2.75 12C2.75 17.1 6.9 21.25 12 21.25C17.1 21.25 21.25 17.1 21.25 12C21.25 6.9 17.1 2.75 12 2.75Z" />
</svg>

<?xml version="1.0" encoding="UTF-8"?>
<svg width="24" height="24" viewBox="0 0 24 24" xmlns="http://www.w3.org/2000/svg">
 <path d="m12 18.31c-0.47 0-0.92-0.24-1.23-0.65l-0.72-0.96h-0.15001c-2.02 0-3.9-0.47-3.9-3.9v-2.63c0-2.31 1.19-3.68 3.34-3.87 0.16-0.02 0.34999-0.03 0.55999-0.03h4.2c2.51 0 3.9 1.38 3.9 3.9v2.63c0 0.2-0.01 0.4-0.03 0.58-0.18 2.12-1.55 3.31-3.86 3.31h-0.15l-0.72 0.96c-0.32 0.43-0.77 0.66-1.24 0.66zm-2.1-10.52c-0.14 0-0.26999-1e-5 -0.39999 0.01999-1.41 0.12-2 0.83-2 2.38v2.63c0 2.07 0.56999 2.4 2.4 2.4h0.26001c0.38 0 0.79 0.2 1.02 0.5l0.79 1.06 0.85-1.05c0.24-0.32 0.62-0.51 1.02-0.51h0.26c1.55 0 2.25-0.59 2.37-1.97 0.02-0.16 0.02-0.29 0.02-0.43v-2.63c0-1.68-0.72-2.4-2.4-2.4h-4.19z"/>
 <path d="m12 22.75c-5.93 0-10.75-4.82-10.75-10.75s4.82-10.75 10.75-10.75 10.75 4.82 10.75 10.75-4.82 10.75-10.75 10.75zm0-20c-5.1 0-9.25 4.15-9.25 9.25s4.15 9.25 9.25 9.25 9.25-4.15 9.25-9.25-4.15-9.25-9.25-9.25z"/>
</svg>
